X:897
T:Cajun jig
R:32 bar jig
O:England
M:6/8
%%ID:00000d11
F: http://www.leeds.ac.uk/music/Info/RRTuneBk/gettune/00000d11.abc
K:G
GBd GBd | ecc c2B | Ace Ace | edd d2B |\
GBd GBd | ecc c2c | BcB ABA | G6 ::
g2g f2a | e2d d3 | Ace Ace | edd d2f |\
g2g f2a | e2d d3 | Ace Ace | dBG G3:|


